build/img/icons/telegram-icon.svg

<svg width="41" height="40" viewBox="0 0 41 40" fill="none" xmlns="http://www.w3.org/2000/svg">
<path d="M20.3678 0H20.2767C9.25617 0 0.322266 8.93392 0.322266 19.9545V20.0455C0.322266 31.0661 9.25617 40 20.2767 40H20.3678C31.3884 40 40.3223 31.0661 40.3223 20.0455V19.9545C40.3223 8.93392 31.3884 0 20.3678 0Z" fill="#88AB8E"/>
<path d="M7.8991 19.3186C7.95516 19.2905 8.01124 19.2639 8.06589 19.2387C9.01604 18.7986 9.9788 18.3866 10.9402 17.9746C10.992 17.9746 11.0789 17.9144 11.1279 17.8947C11.2022 17.8625 11.2765 17.8317 11.3508 17.7994C11.4937 17.7378 11.6366 17.6775 11.7782 17.6159C12.0641 17.4939 12.3485 17.372 12.6344 17.2501L14.3455 16.5172C15.4863 16.0295 16.6284 15.5404 17.7692 15.0527C18.9099 14.565 20.052 14.0759 21.1927 13.5882C22.3335 13.1006 23.4756 12.6115 24.6163 12.1238C25.7571 11.6361 26.8992 11.147 28.04 10.6593C28.2936 10.55 28.5683 10.3875 28.8402 10.3398C29.0686 10.2992 29.2914 10.2207 29.5212 10.1773C29.9571 10.0946 30.4377 10.0609 30.8554 10.2417C30.9997 10.3048 31.1328 10.3931 31.2435 10.5038C31.7733 11.0279 31.699 11.8884 31.5869 12.6255C30.8063 17.763 30.0257 22.9019 29.2438 28.0394C29.1372 28.7443 28.9915 29.5179 28.4351 29.9635C27.9643 30.3405 27.2944 30.3826 26.7128 30.2228C26.1312 30.0616 25.6184 29.7239 25.1153 29.3918C23.0286 28.01 20.9405 26.6282 18.8538 25.2464C18.3577 24.9185 17.8056 24.4897 17.8112 23.8941C17.814 23.5353 18.0284 23.2158 18.247 22.9313C20.0604 20.5658 22.6768 18.9402 24.6234 16.6839C24.898 16.3658 25.1139 15.7912 24.7369 15.6077C24.5127 15.4984 24.2548 15.6469 24.0502 15.7884C21.4772 17.5752 18.9057 19.3634 16.3327 21.1502C15.4933 21.7332 14.6132 22.333 13.6014 22.4759C12.6961 22.6048 11.7852 22.3526 10.9093 22.0947C10.175 21.8789 9.44204 21.6575 8.71192 21.4291C8.32373 21.3085 7.92293 21.1782 7.62303 20.9049C7.32313 20.6317 7.15079 20.172 7.33157 19.8076C7.44508 19.5792 7.6651 19.4349 7.89633 19.3171L7.8991 19.3186Z" fill="#EEE7DA"/>
</svg>

<svg width="41" height="40" fill="none" xmlns="http://www.w3.org/2000/svg"><path d="M20.368 0h-.091C9.257 0 .322 8.934.322 19.954v.091C.322 31.067 9.256 40 20.277 40h.09c11.021 0 19.955-8.934 19.955-19.954v-.091C40.322 8.933 31.388 0 20.368 0Z" fill="#88AB8E"/><path d="M7.9 19.319c.055-.028.111-.055.166-.08.95-.44 1.913-.852 2.874-1.264.052 0 .139-.06.188-.08.074-.032.149-.063.223-.096l.427-.183.856-.366 1.711-.733 3.424-1.464 3.424-1.465 3.423-1.464 3.424-1.465c.254-.109.528-.272.8-.32.229-.04.451-.118.681-.162.436-.082.917-.116 1.334.065.145.063.278.151.389.262.53.524.455 1.384.343 2.122-.78 5.137-1.561 10.276-2.343 15.413-.107.705-.253 1.479-.809 1.924-.47.377-1.14.42-1.722.26-.582-.161-1.095-.5-1.598-.831l-6.261-4.146c-.496-.327-1.048-.756-1.043-1.352.003-.359.217-.678.436-.963 1.813-2.365 4.43-3.99 6.376-6.247.275-.318.49-.893.114-1.076-.224-.11-.482.039-.687.18l-7.717 5.362c-.84.583-1.72 1.183-2.732 1.326-.905.129-1.816-.123-2.692-.381a138.94 138.94 0 0 1-2.197-.666c-.388-.12-.79-.25-1.089-.524-.3-.273-.472-.733-.291-1.097.113-.229.333-.373.564-.49H7.9Z" fill="#EEE7DA"/></svg>
